packages/bezier-icons/icons/fire.svg

<svg width="24" height="24" viewBox="0 0 24 24" fill="none" xmlns="http://www.w3.org/2000/svg">
<path fill-rule="evenodd" clip-rule="evenodd" d="M12.0002 18.0001C9.7942 18.0001 8.0002 16.2061 8.0002 14.0001C8.0002 13.1251 8.1882 12.5061 8.6112 11.8941C8.7892 12.3361 9.0192 12.7641 9.3002 13.1681C10.5372 14.9501 12.6452 16.0571 14.8012 16.0571C15.0202 16.0571 15.2362 16.0461 15.4492 16.0251C14.7522 17.2061 13.4672 18.0001 12.0002 18.0001ZM20.0002 14.0001C20.0002 9.24412 17.0002 5.95412 17.0002 5.95412C17.6372 8.33112 17.4812 9.88112 16.9342 10.8841C15.7432 13.0641 12.3482 11.3961 13.2102 9.06612C14.8012 4.76612 13.6412 4.09312 12.0002 1.00012C12.0002 1.00012 12.1512 2.72412 8.5942 6.25512C8.3602 6.48812 8.1222 6.70912 7.8822 6.92412C5.9592 8.65812 4.0002 10.0241 4.0002 14.0001C4.0002 18.4111 7.5892 22.0001 12.0002 22.0001C16.4112 22.0001 20.0002 18.4111 20.0002 14.0001Z" fill="#313234"/>
</svg>

<svg xmlns="http://www.w3.org/2000/svg" width="24" height="24" fill="none" viewBox="0 0 24 24"><path fill="#313234" fill-rule="evenodd" d="M12 18c-2.206 0-4-1.794-4-4 0-.875.188-1.494.611-2.106.178.442.408.87.69 1.274 1.236 1.782 3.344 2.89 5.5 2.89a7 7 0 0 0 .648-.033A4 4 0 0 1 12 18m8-4c0-4.756-3-8.046-3-8.046.637 2.377.481 3.927-.066 4.93-1.19 2.18-4.586.512-3.724-1.818 1.591-4.3.431-4.973-1.21-8.066 0 0 .151 1.724-3.406 5.255q-.351.348-.712.67C5.96 8.657 4 10.024 4 14c0 4.411 3.59 8 8 8s8-3.589 8-8" clip-rule="evenodd"/></svg>
